icons/outline/box-align-top-left.svg

<!--
tags: [cube, side, up, north-west]
category: Design
version: "1.82"
unicode: "f2d0"
-->
<svg
  xmlns="http://www.w3.org/2000/svg"
  width="24"
  height="24"
  viewBox="0 0 24 24"
  fill="none"
  stroke="currentColor"
  stroke-width="2"
  stroke-linecap="round"
  stroke-linejoin="round"
>
  <path d="M11 5v5a1 1 0 0 1 -1 1h-5a1 1 0 0 1 -1 -1v-5a1 1 0 0 1 1 -1h5a1 1 0 0 1 1 1zm4 -1h-.01m5.01 0h-.01m.01 5h-.01m.01 6h-.01m-15.99 0h-.01m16.01 5h-.01m-4.99 0h-.01m-5.99 0h-.01m-4.99 0h-.01" />
</svg>

<!--
tags: [cube, side, up, north-west]
category: Design
version: "1.82"
unicode: "f2d0"
-->
<svg
  xmlns="http://www.w3.org/2000/svg"
  width="24"
  height="24"
  viewBox="0 0 24 24"
  fill="none"
  stroke="currentColor"
  stroke-width="2"
  stroke-linecap="round"
  stroke-linejoin="round"
>
    <path d="M11 5v5a1 1 0 0 1 -1 1h-5a1 1 0 0 1 -1 -1v-5a1 1 0 0 1 1 -1h5a1 1 0 0 1 1 1zM15 4h-.01M20 4h-.01M20 9h-.01M20 15h-.01M4 15h-.01M20 20h-.01M15 20h-.01M9 20h-.01M4 20h-.01" />
</svg>
